X: 25631
T: Martin Cooney's
R: jig
M: 6/8
K: Dmajor
A,DF AFA|B^GB AFD|A,DF AFA|GFG ECE|
A,DF AFA|B^GB AFA|afd gec|1 ABc d3:|2 ABc de/f/g||
|:afd AFA|DFA dfd|gbg ecA|EAc efg|
f/g/af dAF|DFA dfd|gbg f/g/af|1 gec de/f/g:|2 gec d3||

